X: 4
T:Rudiments - Embellishments Summary
O:Kevin Fraser
Z:Kevin Fraser
Q:1/4=78
K:
M:9/4
L:1/4
R:March
%%MIDI gracedivider 4
%%MIDI gchord
%%MIDI beatstring
T:Bagpipe vs Western stems convention (Rudiments 2020)
V:
||G A B c d e f g a ||
w: Western Music Stem Varies
K:HP
V:gstem=up stem=down
||G A B c d e f g a ||
w: Bagpipe Music Stem Down
w:
T:Melodic vs Gracenote convention (Rudiments 2020)
L: 1/4
|| d2 d d/2d/2 d/4d/4d/4d/4 ||
w: Melodic Notes with stems down
|| {g}A {d}A {e}A {A}A {a}A/2{f}A/2 ||
w: Gracenotes with stems up
w:
T:Norther Lorn  Canntaireachd
V:gstem=up stem=down sname="NL Cannt"
||G A B c d e f g a ||
w: em en o o a e ve di I
T:KSF Canntaireachd
V:gstem=up stem=down sname="KSF Cannt"
||G A B c d e f g a ||
w: em en o io a e ve di I

